packages/icons/src/lib/svgs/linux.svg

<svg
        aria-hidden="true"
        data-testid="test-icon"
        fill="none"
        
        viewBox="0 0 24 24"
        
        xmlns="http://www.w3.org/2000/svg"
        
    >
        <title>linux icon</title>
        <path
            d="M11.8574 6.8409C11.8952 6.8409 11.9331 6.87994 11.971 6.87994C12.0089 6.87994 12.0846 6.87994 12.0846 6.8409C12.0846 6.80186 12.0089 6.76283 11.971 6.72379C11.8952 6.68475 11.8195 6.68475 11.7816 6.72379C11.7438 6.72379 11.7438 6.76283 11.7438 6.76283C11.7438 6.80186 11.8195 6.80186 11.8574 6.8409ZM11.0242 6.87994C11.0999 6.87994 11.0999 6.8409 11.1378 6.8409C11.2135 6.80186 11.2893 6.80186 11.2893 6.76283C11.2893 6.76283 11.2893 6.72379 11.2514 6.72379C11.2135 6.68475 11.1378 6.68475 11.062 6.72379C11.0242 6.76283 10.9106 6.80186 10.9484 6.8409C10.9484 6.87994 10.9863 6.91898 11.0242 6.87994ZM19.4319 17.772C19.2804 17.6158 19.2047 17.3425 19.1289 17.0302C19.0911 16.6789 18.9774 16.3666 18.7502 16.1323C18.7123 16.0933 18.6366 16.0542 18.5987 16.0152C18.5608 15.9762 18.4851 15.9762 18.4472 15.9371C18.7881 14.8831 18.6366 13.829 18.2957 12.853C17.8791 11.6818 17.1217 10.6668 16.5536 9.96407C15.8719 9.1052 15.2659 8.32441 15.2659 7.15322C15.3038 5.3574 15.4553 2.03904 12.3876 2C8.52458 2 9.50927 6.06011 9.43352 7.30938C9.39565 8.20729 9.20629 8.91 8.60033 9.80791C7.88074 10.7058 6.85818 12.1112 6.40371 13.5947C6.17647 14.2975 6.06286 15.0002 6.17647 15.6638C5.91136 15.8981 5.722 16.2494 5.53264 16.4837C5.38115 16.6398 5.15391 16.6789 4.8888 16.796C4.62369 16.8741 4.35859 17.0302 4.20709 17.3425C4.09348 17.4987 4.09348 17.6549 4.09348 17.8501C4.09348 18.0062 4.09348 18.1624 4.13135 18.3185C4.16922 18.6308 4.20709 18.9041 4.16922 19.0993C3.97986 19.6849 3.94199 20.0753 4.09348 20.3486C4.20709 20.6219 4.51008 20.778 4.85093 20.8171C5.49477 20.9732 6.36584 20.9342 7.08542 21.3246C7.84287 21.715 8.60033 21.8711 9.20629 21.715C9.62289 21.6369 10.0016 21.3636 10.191 20.9342C10.6454 20.9342 11.1757 20.739 12.0089 20.6609C12.577 20.6219 13.2965 20.8951 14.0919 20.8561C14.1297 20.9342 14.1676 21.0123 14.2055 21.0903C14.5085 21.754 15.0766 22.0663 15.7204 21.9882C16.3642 21.9492 17.0081 21.5588 17.5383 20.8951C18.0685 20.2705 18.9017 19.9972 19.4698 19.6459C19.7728 19.4897 20 19.2555 20 18.9432C20 18.6308 19.8485 18.2795 19.4319 17.772ZM11.971 5.43548C12.3497 4.57661 13.2587 4.57661 13.6374 5.39644C13.9025 5.98203 13.7889 6.60667 13.4859 6.99706C13.4102 6.95802 13.2587 6.87994 12.9936 6.80186C13.0314 6.76283 13.1072 6.68475 13.145 6.60667C13.3344 6.13819 13.145 5.5526 12.8042 5.5526C12.5391 5.51356 12.274 5.98203 12.3497 6.45051C12.1982 6.37243 12.0089 6.29435 11.8574 6.29435C11.8195 6.02107 11.8574 5.70876 11.971 5.43548ZM10.4561 4.96701C10.8348 4.96701 11.2135 5.51356 11.1757 6.29435C11.0242 6.33339 10.9106 6.37243 10.7591 6.45051C10.8348 6.09915 10.6454 5.66972 10.4182 5.70876C10.0774 5.70876 10.0395 6.52859 10.3425 6.80186C10.3803 6.8409 10.4182 6.80186 10.1152 6.99706C9.54714 6.45051 9.73651 4.96701 10.4561 4.96701ZM9.92587 7.34842C10.1531 7.15322 10.4561 6.95802 10.4561 6.91898C10.6454 6.76283 10.9863 6.37243 11.5165 6.37243C11.7816 6.37243 12.1225 6.48955 12.5012 6.72379C12.7284 6.87994 12.9178 6.91898 13.3344 7.07514C13.6753 7.2313 13.8646 7.46554 13.751 7.81689C13.6374 8.09017 13.3344 8.36345 12.8799 8.5196C12.4633 8.63672 12.1225 9.14424 11.4408 9.1052C11.2893 9.06616 11.1757 9.06616 11.062 9.02712C10.7591 8.87096 10.6076 8.59768 10.3046 8.44153C10.0016 8.24633 9.81225 8.01209 9.77438 7.81689C9.69863 7.6217 9.77438 7.46554 9.92587 7.34842ZM10.0395 20.3876C9.96374 21.754 8.37309 21.715 7.19904 21.0903C6.06286 20.4657 4.58582 20.8171 4.28284 20.2315C4.20709 20.0363 4.20709 19.724 4.39646 19.2164V19.1774C4.4722 18.9041 4.43433 18.5528 4.35859 18.2795C4.32071 17.9672 4.32071 17.6939 4.39646 17.4987C4.54795 17.2254 4.73731 17.1083 4.96455 17.0302C5.34327 16.9131 5.41902 16.9131 5.722 16.6398C5.91136 16.4446 6.06286 16.1323 6.25222 15.9371C6.44158 15.7419 6.63095 15.6248 6.93393 15.6638C7.23691 15.7419 7.50202 15.9371 7.76713 16.2885L8.48671 17.6939C8.86543 18.4747 10.1152 19.5678 10.0395 20.3876ZM10.0016 19.3726C9.85012 19.0993 9.62289 18.826 9.43352 18.5918C9.73651 18.5918 10.0016 18.5137 10.0774 18.2795C10.1531 18.0062 10.0774 17.6939 9.81225 17.3035C9.28203 16.5618 8.33522 16.0152 8.33522 16.0152C7.84287 15.7029 7.53989 15.2734 7.42627 14.844C7.27478 14.4146 7.31265 13.9461 7.42627 13.4776C7.61564 12.5797 8.10798 11.7208 8.44883 11.1743C8.52458 11.0962 8.48671 11.2914 8.10798 11.9941C7.805 12.6188 7.19904 14.0632 7.99436 15.1954C8.03223 14.3755 8.2216 13.5557 8.52458 12.814C8.97905 11.7208 9.96374 9.88599 10.0395 8.40249C10.0774 8.44153 10.191 8.5196 10.2667 8.55864C10.4182 8.67576 10.5697 8.83192 10.7212 8.94904C11.2135 9.33944 11.8195 9.3004 12.3497 8.98808C12.577 8.87096 12.7663 8.7148 12.9557 8.63672C13.3344 8.5196 13.5995 8.32441 13.7889 8.05113C14.0919 9.26136 14.7736 10.9791 15.1902 11.7989C15.4174 12.2674 15.8719 13.2044 16.0991 14.3365C16.2127 14.3365 16.3642 14.3365 16.5157 14.3755C17.0081 12.9701 16.0612 11.4866 15.6068 11.0572C15.4553 10.901 15.4174 10.8229 15.531 10.8229C15.9855 11.2524 16.6293 12.1112 16.8566 13.1263C16.9702 13.5557 16.9702 14.0242 16.8566 14.4927C17.5004 14.7659 18.22 15.1954 18.0306 15.859C17.9549 15.859 17.917 15.859 17.8791 15.859C17.9927 15.4686 17.7276 15.1954 17.0081 14.844C16.2506 14.5317 15.6446 14.5317 15.5689 15.3515C15.1144 15.5077 14.8493 15.8981 14.7357 16.4056C14.66 16.835 14.6221 17.3816 14.5842 17.9672C14.5463 18.2795 14.4327 18.6699 14.3191 19.0993C13.1072 19.9972 11.4029 20.3876 10.0016 19.3726ZM19.7349 18.9432C19.697 19.5678 18.1821 19.6849 17.3489 20.739C16.8566 21.3636 16.2506 21.6759 15.6825 21.754C15.1523 21.7931 14.6978 21.5588 14.4327 20.9732C14.2434 20.5438 14.3191 20.0753 14.4706 19.5678C14.6221 19.0212 14.8114 18.4356 14.8493 17.9672C14.8872 17.3816 14.8872 16.8741 15.0008 16.4837C15.1144 16.0542 15.2659 15.781 15.531 15.6638C15.531 15.6248 15.531 15.6248 15.5689 15.6248C15.5689 16.1323 15.834 16.6789 16.2506 16.796C16.7429 16.9131 17.4247 16.4837 17.7276 16.1323C18.0685 16.1323 18.3336 16.0933 18.5608 16.3275C18.9396 16.6789 18.8638 17.5377 19.2425 17.9672C19.6213 18.4356 19.7728 18.7089 19.7349 18.9432ZM10.0774 7.81689C10.1531 7.89497 10.2667 8.01209 10.3803 8.09017C10.6076 8.28537 10.9863 8.5196 11.4029 8.5196C11.8574 8.5196 12.274 8.28537 12.6148 8.09017C12.8042 7.97305 13.0314 7.81689 13.1829 7.69977C13.3344 7.54362 13.4102 7.4265 13.2965 7.4265C13.1829 7.4265 13.1829 7.54362 13.0693 7.6217C12.8799 7.73881 12.6906 7.93401 12.5391 8.01209C12.274 8.16825 11.7816 8.40249 11.4029 8.40249C11.0242 8.40249 10.6833 8.20729 10.4561 8.01209C10.3425 7.93401 10.2289 7.81689 10.1531 7.77785C10.1152 7.69977 10.1152 7.58266 10.0016 7.58266C9.96374 7.58266 9.92587 7.69977 10.0774 7.81689Z"
            fill="currentColor"
        />
    </svg>

<svg aria-hidden="true" data-testid="test-icon" fill="currentColor" viewBox="0 0 24 24" xmlns="http://www.w3.org/2000/svg"><path d="M11.857 6.84c.038 0 .076.04.114.04.038 0 .114 0 .114-.04 0-.038-.076-.077-.114-.116-.076-.04-.152-.04-.19 0-.037 0-.037.039-.037.039 0 .039.075.039.113.078zm-.833.04c.076 0 .076-.04.114-.04.075-.038.151-.038.151-.077 0 0 0-.04-.038-.04-.037-.038-.113-.038-.189 0-.038.04-.151.079-.114.118 0 .039.038.078.076.039zm8.408 10.892c-.152-.156-.227-.43-.303-.742-.038-.351-.152-.663-.379-.898-.038-.039-.113-.078-.151-.117-.038-.039-.114-.039-.152-.078.341-1.054.19-2.108-.151-3.084-.417-1.171-1.174-2.186-1.742-2.889-.682-.859-1.288-1.64-1.288-2.81.038-1.797.19-5.115-2.878-5.154-3.863 0-2.879 4.06-2.954 5.31-.038.897-.228 1.6-.834 2.498-.72.898-1.742 2.303-2.196 3.787-.228.702-.341 1.405-.228 2.069-.265.234-.454.585-.643.82-.152.156-.38.195-.644.312-.265.078-.53.234-.682.547-.114.156-.114.312-.114.507 0 .156 0 .312.038.468.038.313.076.586.038.781-.19.586-.227.976-.076 1.25.114.273.417.429.758.468.644.156 1.515.117 2.234.508.758.39 1.515.546 2.121.39.417-.078.796-.351.985-.78.454 0 .985-.196 1.818-.274.568-.04 1.287.234 2.083.195l.114.234c.303.664.87.976 1.514.898.644-.039 1.288-.43 1.818-1.093.53-.625 1.364-.898 1.932-1.25.303-.155.53-.39.53-.702 0-.312-.151-.664-.568-1.171zM11.97 5.435c.379-.858 1.288-.858 1.666-.039.265.586.152 1.21-.151 1.601a2.593 2.593 0 00-.492-.195c.037-.04.113-.117.151-.195.19-.469 0-1.054-.34-1.054-.266-.04-.531.429-.455.898-.152-.079-.341-.157-.493-.157-.037-.273 0-.585.114-.859zm-1.515-.468c.379 0 .758.547.72 1.327a1.81 1.81 0 00-.417.157c.076-.352-.114-.781-.34-.742-.342 0-.38.82-.077 1.093.038.039.076 0-.227.195-.568-.546-.378-2.03.341-2.03zm-.53 2.381c.227-.195.53-.39.53-.429.19-.156.53-.547 1.06-.547.266 0 .607.118.985.352.227.156.417.195.833.351.341.156.53.39.417.742-.114.273-.417.546-.871.703-.417.117-.758.624-1.44.585-.15-.039-.264-.039-.378-.078-.303-.156-.454-.43-.757-.585-.303-.196-.493-.43-.53-.625-.076-.195 0-.351.15-.469zm.114 13.04c-.076 1.366-1.667 1.327-2.841.702-1.136-.624-2.613-.273-2.916-.858-.076-.196-.076-.508.113-1.016v-.039c.076-.273.038-.624-.037-.898-.038-.312-.038-.585.037-.78a.943.943 0 01.569-.469c.378-.117.454-.117.757-.39.19-.195.34-.508.53-.703.19-.195.379-.312.682-.273.303.078.568.273.833.624l.72 1.406c.378.78 1.628 1.874 1.553 2.694zm-.038-1.015c-.152-.274-.38-.547-.568-.781.303 0 .568-.078.643-.313.076-.273 0-.585-.265-.976-.53-.741-1.477-1.288-1.477-1.288-.492-.312-.795-.742-.909-1.171-.151-.43-.113-.898 0-1.366.19-.898.682-1.757 1.023-2.304.076-.078.038.117-.341.82-.303.625-.909 2.07-.114 3.201.038-.82.228-1.64.53-2.381.455-1.093 1.44-2.928 1.516-4.412.037.04.151.118.227.157.151.117.303.273.454.39.492.39 1.098.351 1.629.04.227-.118.416-.274.606-.352.378-.117.644-.313.833-.586.303 1.21.985 2.928 1.401 3.748.227.468.682 1.405.91 2.537.113 0 .264 0 .416.04.492-1.406-.455-2.89-.91-3.319-.15-.156-.189-.234-.075-.234.454.43 1.098 1.288 1.326 2.303.113.43.113.898 0 1.367.643.273 1.363.702 1.174 1.366h-.152c.114-.39-.151-.664-.87-1.015-.758-.312-1.364-.312-1.44.508-.455.156-.72.546-.833 1.054-.076.429-.114.976-.152 1.561-.038.313-.151.703-.265 1.132-1.212.898-2.916 1.289-4.317.274zm9.733-.43c-.038.625-1.553.742-2.386 1.796-.492.625-1.098.937-1.667 1.015-.53.04-.984-.195-1.25-.78-.189-.43-.113-.899.039-1.406.151-.547.34-1.132.378-1.6.038-.586.038-1.094.152-1.484.113-.43.265-.703.53-.82 0-.04 0-.04.038-.04 0 .508.265 1.055.682 1.172.492.117 1.174-.312 1.477-.664.34 0 .606-.039.833.195.379.352.303 1.21.681 1.64.38.469.53.742.493.976zM10.077 7.817c.076.078.19.195.303.273.228.195.606.43 1.023.43.454 0 .871-.235 1.212-.43.19-.117.416-.273.568-.39.151-.156.227-.274.114-.274-.114 0-.114.118-.228.196-.19.117-.378.312-.53.39-.265.156-.757.39-1.136.39-.379 0-.72-.195-.947-.39-.114-.078-.227-.195-.303-.234-.038-.078-.038-.195-.151-.195-.038 0-.076.117.075.234z"/></svg>
